!!!ONB: MCCC : ILB0171_01 : Extracted Monophonic Melody
!!!COM: Beethoven, Ludwig van
!!!OPR: Piano Sonata No.10
!!!OMV: 1
!!!SCT: Op.14 No.2
!!!ODT: 1798///
**kern
*thru
*staff1
*>A
*clefG2
*k[f#]
*G:
*M2/4
*MM104
16d
16dd
16a#
=1
16b
16f#
8.g
16d
16dd
16a#
=2
16b
16f#
8.g
16e
16ee
16b
=3
16cc
16g#
8.a
16e
16ee
16b
=4
16cc
16g#
8.a
16a
16ccc
16bb
=5
8.aa
16gg
16ff#
16ee
16dd
16cc
=6
16cc
8b
16gg
16gg
8a
16ee
=7
16ee
8g
16dd
16dd
8c
16f#
=8
4g
8r
8dd
=9
8dd
8dd
8dd
8dd
=10
4ee
8dd
8r
=11
8.r
16dd
16dd
16dd
16dd
16dd
=12
4ee
8dd
8r
=13
8r
[8dd
16dd]
32ee
32dd
16cc
16b
=14
8b
4a
8g
=15
8g
4f#
8dd
=16
8dd
4cc#
8b
=17
8b
4a
8ff#
=18
8ff#
4ee
8dd
=19
8dd
4cc#
8b
=20
8b
8a
24r
24dd
24ee
24ff#
24ee
24dd
=21
8dd
8cc#
24r
24b
24cc#
24dd
24cc#
24b
=22
8b
8a
24r
24dd
24ee
24ff#
24ee
24dd
=23
24dd
24cc#
24dd
24ee
24dd
24cc#
24cc#
24b
24cc#
24dd
24cc#
24b
=24
24b
24a
24g#
24a
24b
24cc#
24dd
24dd#
24ee
32ff
32ff#
32gg
32gg#
=25
8aa
8aa
8aa
8aa
=26
8.aa
16gg#
8.aa
16gg#
=27
8.aa
16gg
16gg
16ff#
16ff#
16ee
=28
16ee
16dd
16dd
16cc#
16cc#
16b
16b
16a
=29
4f#
8g
8r
=30
8.gg
16ff#
8.gg
16ff#
=31
8.gg
16ff#
16ff#
16ee
16ee
16dd
=32
16dd
16cc#
16cc#
16b
16b
16a
16a
16g
=33
8f#
8b
8a
8g
=34
8f#
8b
8a
8g
=35
16f#
16d
8b
8a
8g#
=36
8a
8r
4r
=37
8ff#
8bb
8aa
8gg
=38
8ff#
8bb
8aa
8gg
=39
8ff#
4ddd
[8ddd
=40
8ddd]
8ddd
8ddd
8ddd
=41
32bb
32ccc#
32bb
32aa#
32bb
32ccc#
32ddd
32ccc#
32bb
32ccc#
32bb
32aa#
32bb
32ccc#
32ddd
32ccc#
=42
32ddd
32eee
32ddd
32ccc#
32ddd
32eee
32fff
32eee
32ddd
32eee
32ddd
32ccc#
32ddd
32eee
32fff
32eee
=43
32ddd
32eee
32ddd
32ccc#
32ddd
32eee
32fff#
32eee
32ddd
32ccc#
32bb
32aa
32gg
32ff#
32ee
32dd
=44
4ff#
4ee
=45
32dd
32ee
32ff#
32gg
32aa
32gg
32ff#
32ee
32dd
32cc#
32b
32a
32g
32f#
32e
32d
=46
4f#
4e
=47
16d
16A
16f#
16A
16g
16A
16g#
16A
=48
2a[
=49
8a]
8f#
8b
8a
=50
2g[
=51
8g]
8g
8a
8g
=52
2f#
=53
8f#
8e
8e
8g
=54
2f#[
=55
8f#]
8e
8e
8g
=56
2f#[
=57
8f#]
8g
8f#
8e
=58
4.d
8e
=59
4.f#
8e
=60
4.d
.
.
.
.
.
8cc#
.cc#
=61
8dd
.
8cc#
.cc#
8dd
.
8cc#
.
=62
2ee
=63
8dd
8r
*>A
*M2/4
16r
16d
16dd
16a#
=64
16b
16f#
8.g
16d
16dd
16a#
=65
16b
16f#
8.g
16e
16ee
16b
=66
16cc
16g#
8.a
16e
16ee
16b
=67
16cc
16g#
8.a
16a
16ccc
16bb
=68
8.aa
16gg
16ff#
16ee
16dd
16cc
=69
16cc
8b
16gg
16gg
8a
16ee
=70
16ee
8g
16dd
16dd
8c
16f#
=71
4g
8r
8dd
=72
8dd
8dd
8dd
8dd
=73
4ee
8dd
8r
=74
8.r
16dd
16dd
16dd
16dd
16dd
=75
4ee
8dd
8r
=76
8r
[8dd
16dd]
32ee
32dd
16cc
16b
=77
8b
4a
8g
=78
8g
4f#
8dd
=79
8dd
4cc#
8b
=80
8b
4a
8ff#
=81
8ff#
4ee
8dd
=82
8dd
4cc#
8b
=83
8b
8a
24r
24dd
24ee
24ff#
24ee
24dd
=84
8dd
8cc#
24r
24b
24cc#
24dd
24cc#
24b
=85
8b
8a
24r
24dd
24ee
24ff#
24ee
24dd
=86
24dd
24cc#
24dd
24ee
24dd
24cc#
24cc#
24b
24cc#
24dd
24cc#
24b
=87
24b
24a
24g#
24a
24b
24cc#
24dd
24dd#
24ee
32ff
32ff#
32gg
32gg#
=88
8aa
8aa
8aa
8aa
=89
8.aa
16gg#
8.aa
16gg#
=90
8.aa
16gg
16gg
16ff#
16ff#
16ee
=91
16ee
16dd
16dd
16cc#
16cc#
16b
16b
16a
=92
4f#
8g
8r
=93
8.gg
16ff#
8.gg
16ff#
=94
8.gg
16ff#
16ff#
16ee
16ee
16dd
=95
16dd
16cc#
16cc#
16b
16b
16a
16a
16g
=96
8f#
8b
8a
8g
=97
8f#
8b
8a
8g
=98
8a
8r
4r
=99
8ff#
8bb
8aa
8gg
=100
8ff#
8bb
8aa
8gg
=101
8ff#
4ddd
[8ddd
=102
8ddd]
8ddd
8ddd
8ddd
=103
32bb
32ccc#
32bb
32aa#
32bb
32ccc#
32ddd
32ccc#
32bb
32ccc#
32bb
32aa#
32bb
32ccc#
32ddd
32ccc#
=104
32ddd
32eee
32ddd
32ccc#
32ddd
32eee
32fff
32eee
32ddd
32eee
32ddd
32ccc#
32ddd
32eee
32fff
32eee
=105
32ddd
32eee
32ddd
32ccc#
32ddd
32eee
32fff#
32eee
32ddd
32ccc#
32bb
32aa
32gg
32ff#
32ee
32dd
=106
4ff#
4ee
=107
32dd
32ee
32ff#
32gg
32aa
32gg
32ff#
32ee
32dd
32cc#
32b
32a
32g
32f#
32e
32d
=108
4f#
4e
=109
16d
16A
16f#
16A
16g
16A
16g#
16A
=110
4.d
8e
=111
4.f#
8e
=112
4.d
8cc#
=113
8dd
8cc#
8dd
8cc#
=114
2ee
=115
8dd
8r
*>B
16r
16d
16dd
16a
=116
16b-
16f#
8.g
16d
16dd
16a
=117
16b-
16f#
8.g
16g
16gg
16dd
=118
16ee-
16b
8.cc
16g
16gg
16dd
=119
16ee-
16b
8.cc
16ddd
16eee-
16bb
=120
8ccc
16F#
16c
4e-
=121
8cc
16F
16c
4e-
=122
8ccc
16e-
16B
16c
16f
16ee-
16b
=123
16cc
16g#
8.a
16f
16ee-
16b
=124
16cc
16g#
8a
16c
16G#
16A
16E
=125
16F
16F#
16G
16E-
16F
16D
16E-
16C
=126
8.ff
16ee
8.ff
16ee
=127
8.ff
16ee-
16ee-
16dd
16dd
16cc
=128
16cc
16b-
16b-
16a
16a
16g
16g
16f
=129
4d
8e-
8r
=130
8.ee-
16dd
8.ee-
16dd
=131
8.ee-
16dd
8.ee-
16dd
=132
8.ee-
16dd
8.ee-
16dd
=133
24ee-
24cc
24e-
24ee-
24cc
24e-
24ee-
24cc
24e-
24ee-
24cc
24e-
=134
24ee-
24cc
24e-
24ee-
24cc
24e-
24ee-
24cc
24e-
24ee-
24cc
24e-
=135
24ee-
24cc
24e-
24ee-
24cc
24e-
24ee-
24cc
24e-
24ee-
24cc
24e-
=136
24dd
24cc
24d
24dd
24cc
24d
24dd
24cc
24d
24dd
24cc
24d
=137
24dd
24cc
24d
24dd
24cc
24d
24dd
24cc
24d
24dd
24cc
24d
=138
24dd
24b-
24d
24dd
24b-
24g
24dd
24b-
24g
24dd
24b-
24g
=139
24dd
24b-
24g
24dd
24b-
24g
24dd
24b-
24g
24dd
24b-
24g
=140
24dd
24b-
24g
24dd
24b-
24g
24dd
24b-
24g
24dd
24b-
24g
=141
24cc
24b-
24g
24cc
24b-
24g
24cc
24b-
24g
24cc
24b-
24g
=142
24cc
24b-
24g
24ee
24b-
24g
24ee
24b-
24g
24ee
24b-
24g
=143
24ff
24a-
24f
24ff
24a-
24f
24ff
24a-
24f
24ff
24a-
24f
=144
24ff
24a
24f
24ee-
24a
24f
24ee-
24a
24f
24ee-
24a
24f
=145
24ee-
24b-
24f
24dd
24b-
24f
24dd
24b-
24f
24dd
24b-
24f
=146
24dd
24b-
24f
24dd
24b-
24f
24dd
24b-
24f
24dd
24b-
24f
=147
24dd
24b-
24f
24ff
24dd
24b-
24ff
24dd
24b-
24ff
24dd
24b-
=148
24ff
24dd
24b-
24aa-
24dd
24b-
24aa-
24dd
24b-
24aa-
24dd
24b-
=149
24aa-
24dd
24b
24ff
24dd
24b
24ff
24dd
24b
24ff
24dd
24b
=150
4ff
16r
16b-
16bb-
16ff#
=151
16gg
16dd
8.ee-
16b-
16bb-
16ff#
=152
16gg
16dd
8.ee-
16cc
16ccc
16gg
=153
16aa-
16ee
8.ff
16cc
16ccc
16gg
=154
16aa-
16ee
8.ff
16ff
16fff
16fff
=155
8.fff
16eee-
16ddd
16ccc
16bb-
16aa-
=156
8.gg
16ff
16ee-
16dd
16cc
16b-
=157
8.a
16g
16f#
16e-
16d
16c
=158
8.B-
16A
16G
16A
16B-
16c#
=159
32r
32d
32e
32f#
32g
32a
32b
32cc#
32dd
32ee
32ff#
32gg
32aa
32dd
32ee
32ff#
=160
32gg
32aa
32bb-
32ccc
32ddd
32eee-
32ddd
32ccc
32bb-
32ccc
32bb-
32aa
32gg
32bb-
32aa
32gg
=161
32ff#
32d
32e
32f#
32g
32a
32b
32cc#
32dd
32ee
32ff#
32gg
32aa
32dd
32ee
32ff#
=162
32gg
32aa
32bb-
32ccc
32ddd
32eee-
32ddd
32ccc
32bb-
32ccc
32bb-
32aa
32gg
32bb-
32aa
32gg
=163
32ff#
32d
32e
32f#
32g
32a
32b
32cc#
32dd
32ee
32ff#
32gg
32aa
32dd
32ee
32ff#
=164
32gg
32aa
32bb-
32ccc
32ddd
32eee-
32ddd
32ccc
32ccc
32ccc
32bb-
32aa
32gg
32bb-
32aa
32gg
=165
32ff#
32aa
32gg
32ff#
32gg
32bb-
32aa
32gg
32ff#
32aa
32gg
32ff#
32gg
32bb-
32aa
32gg
=166
32ff#
32aa
32gg
32ff#
32gg
32bb
32aa
32gg
32ff#
32aa
32gg
32ff#
32gg
32bb
32aa
32gg
=167
8ff#
8r
16r
16G#
16A
16E#
=168
8F#
8r
16r
16gg#
16aa
16ee#
=169
8ff#
8r
16r
16B
16c
16G#
=170
8A
8r
16r
16bb
16ccc
16gg#
=171
16aa
16B
16c
16G#
16A
16bb
16ccc
16gg#
=172
16aa
16B
16c
16G#
16A
16bb
16ccc
16gg#
=173
16aa
16ddd#
16eee
16bb
16ccc
16ddd#
16eee
16bb
=174
16ccc
16ddd#
16eee
16bb
16ccc
16gg#
16aa
16ee#
=175
16ff#
16dd#
16ee
16b
16cc
16g#
16a
16b-
=176
16b
16cc
8.cc#
16d
16dd
16a#
=177
16b
16f#
8.g
16d
16dd
16a#
=178
16b
16f#
8.g
16e
16ee
16b
=179
16cc
16g#
8.a
16e
16ee
16b
=180
16cc
16g#
8.a
16a
16ccc
16bb
=181
8.aa
16gg
16ff#
16ee
16dd
16cc
=182
16cc
8b
16gg
16gg
8a
16ee
=183
16ee
8g
16dd
16dd
8c
16f#
=184
4g
8r
8dd
=185
8dd
8dd
8dd
8dd
=186
4ee
8dd
8r
=187
8.r
16dd
16dd
16dd
16dd
16dd
=188
4ee
8dd
8r
=189
8r
8gg
8gg
8gg
=190
4aa
8gg
8r
=191
8.r
16gg
16gg
16gg
16gg
16gg
=192
8aa
8gg[
16gg]
32aa
32gg
16ff
16ee
=193
8ee
4dd
8cc
=194
8cc
4b
8gg
=195
8gg
4ff#
8ee
=196
8ee
4dd
8bb
=197
8bb
4aa
8gg
=198
8gg
4ff#
8ee
=199
8ee
8dd
24r
24gg
24aa
24bb
24aa
24gg
=200
8gg
8ff#
24r
24ee
24ff#
24gg
24ff#
24ee
=201
8ee
8dd
24r
24gg
24aa
24bb
24aa
24gg
=202
24gg
24ff#
24gg
24aa
24gg
24ff#
24ff#
24ee
24ff#
24gg
24ff#
24ee
=203
24ee
24dd
24cc#
24dd
24ee
24ff#
24gg
24gg#
24aa
32bb-
32bb
32ccc
32ccc#
=204
8ddd
8ddd
8ddd
8ddd
=205
8.ddd
16ccc#
8.ddd
16ccc#
=206
8.ddd
16ccc
16ccc
16bb
16bb
16aa
=207
16aa
16gg
16gg
16ff#
16ff#
16ee
16ee
16dd
=208
4b
8cc
8r
=209
8.ccc
16bb
8.ccc
16bb
=210
8.ccc
16bb
16bb
16aa
16aa
16gg
=211
16gg
16ff#
16ff#
16ee
16ee
16dd
16dd
16cc
=212
8b
8ee
8dd
8cc
=213
8b
8ee
8dd
8cc
=214
8b
8ee
8dd
8cc#
=215
8dd
8r
4r
=216
8bb
8eee
8ddd
8ccc
=217
8bb
8eee
8ddd
8ccc
=218
8bb
4gg
8gg[
=219
8gg]
8gg
8gg
8gg
=220
32ee
32ff#
32ee
32dd#
32ee
32ff#
32gg
32ff#
32ee
32ff#
32ee
32dd#
32ee
32ff#
32gg
32ff#
=221
32gg
32aa
32gg
32ff#
32gg
32aa
32bb-
32aa
32gg
32aa
32gg
32ff#
32gg
32aa
32bb-
32aa
=222
32gg
32aa
32gg
32ff#
32gg
32aa
32bb
32aa
32gg
32ff#
32ee
32dd
32cc
32b
32a
32g
=223
4b
4a
=224
32g
32a
32b
32cc
32dd
32cc
32b
32a
32g
32f#
32e
32d
32c
32B
32A
32G
*clefF4
=225
4B
4A
=226
16G
16D
16B
16D
16c
16D
16c#
16D
=227
2d[
=228
8d]
8B
8e
8d
=229
2c[
=230
8c]
8c
8d
8c
=231
2B
=232
8B
8A
8A
8c
=233
2B[
=234
8B]
8A
8A
8c
=235
2B[
=236
8B]
8B
8c
8d
=237
4e
4A
=238
4B
8.c
16A
=239
4G
*clefG2
4D
=240
4b[
16b]
16g
16gg
16b
=241
4cc[
16cc]
16cc
16ccc
16bb
=242
8.aa
16gg
16ff#
16ee
16dd
16cc
=243
8a#
8b
4G
=244
4b[
16b]
16g
16gg
16b
=245
4cc[
16cc]
16cc
16eee
16ddd
=246
4ccc
16ccc
16bb
16aa
16gg
=247
16ff#
16ee
16dd
16cc
16b
16a
16g
16f#
=248
16e
16d
16c#
16d
16c#
16d
16e
16c
=249
8B
8r
16r
16dd#
16ee
16cc
=250
8b
8r
16r
16ddd
16eee#
16ccc
=251
4.ccc
32bb
32ccc
32ddd
32ccc
=252
8bb
8r
==
*-
